X: 20608
T: John Of Paris
R: jig
M: 6/8
K: Gmajor
|:d/c/|B2 B BAB|d2 B BAB|c2 e g2 e|d2 B BAB|
c2 A AGA|B2 G GFG|E2 e edc|B2 G G2:|
|:B/c/|d2 c Bcd|e2 f g2 a|b2 a gfe|d2 c B2 c|
d2 c Bcd|e2 f g2 a|b2 a gfe|d2 c Bcd|
e2 e ecA|d2 d dBG|c2 A B2 G|FAd d2:|

